Mono Glyph Icons/packaged/mono-glyph-icons-accented/apps/symbolic/pythonbackend.svg

<svg height="48" width="48" xmlns="http://www.w3.org/2000/svg">
  <defs>
    <style type="text/css" id="current-color-scheme">.ColorScheme-Highlight { color:#000000; }</style>
  </defs>
  <defs>
    <style type="text/css" id="current-color-scheme">.ColorScheme-Highlight { color:#000000; } .ColorScheme-Text { color:#ffffff; }</style>
  </defs><path class="ColorScheme-Highlight" fill="currentColor" d="m44 21.5v3.75c0 4.023-3.553 7.579-7.551 7.787-.131.007-.262.01-.394.01l-13.055-.047v2h10l-.003 3.424c-.002 3.117-2.756 5.576-5.872 5.576h-7.5c-3.116 0-5.651-2.509-5.625-5.625l.07-8.361c.017-2.014 1.427-5.014 4.93-5.014l9.965-.03c4.035.03 6.983-2.72 7.035-6.97v-4c4.155 0 8 3.345 8 7.5zm-16.875 16.875c0 1.039.836 1.875 1.875 1.875s1.875-.836 1.875-1.875-.836-1.875-1.875-1.875-1.875.836-1.875 1.875zm1.25-34.375c3.116 0 5.625 2.509 5.625 5.625v9.375c0 1.449-2 4-5 4h-10c-4.64.04-7 2.437-7 7v4c-4.155 0-8-3.345-8-7.5v-3.75c0-4.155 3.691-7.681 7.846-7.698l13.154-.052v-2h-10l.003-3.424c.002-3.117 2.756-5.576 5.872-5.576zm-11.25 5.625c0 1.039.836 1.875 1.875 1.875s1.875-.836 1.875-1.875-.836-1.875-1.875-1.875-1.875.836-1.875 1.875z"/></svg>

<?xml version="1.0" encoding="utf-8"?>
<svg height="48" width="48" xmlns="http://www.w3.org/2000/svg">
  <defs>
    <style type="text/css" id="current-color-scheme">.ColorScheme-Highlight { color:#000000; }</style>
  </defs>
  <defs>
    <style type="text/css" id="current-color-scheme">.ColorScheme-Highlight { color:#000000; } .ColorScheme-Text { color:#ffffff; }</style>
  </defs>
  <path class="ColorScheme-Highlight" fill="currentColor" d="M 44 21.5 L 44 25.25 C 44 29.273 40.447 32.829 36.449 33.037 C 36.318 33.044 36.187 33.047 36.055 33.047 L 23 33 L 23 35 L 33 35 L 32.997 38.424 C 32.995 41.541 30.241 44 27.125 44 L 19.625 44 C 16.509 44 13.974 41.491 14 38.375 L 14.07 30.014 C 14.087 28 15.497 25 19 25 L 28.965 24.97 C 33 25 35.948 22.25 36 18 L 36 14 C 40.155 14 44 17.345 44 21.5 Z M 25.125 39.375 C 25.125 40.414 25.961 41.25 27 41.25 C 28.039 41.25 28.875 40.414 28.875 39.375 C 28.875 38.336 28.039 37.5 27 37.5 C 25.961 37.5 25.125 38.336 25.125 39.375 Z M 28.375 4 C 31.491 4 34 6.509 34 9.625 L 34 19 C 34 20.449 32 23 29 23 L 19 23 C 14.36 23.04 12 25.437 12 30 L 12 34 C 7.845 34 4 30.655 4 26.5 L 4 22.75 C 4 18.595 7.691 15.069 11.846 15.052 L 25 15 L 25 13 L 15 13 L 15.003 9.576 C 15.005 6.459 17.759 4 20.875 4 L 28.375 4 Z M 19.125 8.625 C 19.125 9.664 19.961 10.5 21 10.5 C 22.039 10.5 22.875 9.664 22.875 8.625 C 22.875 7.586 22.039 6.75 21 6.75 C 19.961 6.75 19.125 7.586 19.125 8.625 Z"/>
</svg>
